public/library/apescan-text-dark.svg

<svg width="489" height="171" viewBox="0 0 489 171" fill="none" xmlns="http://www.w3.org/2000/svg">
<mask id="mask0_15419_7884" style="mask-type:luminance" maskUnits="userSpaceOnUse" x="0" y="0" width="489" height="171">
<path d="M486.46 0H1.96153C0.878207 0 0 0.878207 0 1.96153V168.691C0 169.775 0.878207 170.653 1.96153 170.653H486.46C487.544 170.653 488.422 169.775 488.422 168.691V1.96153C488.422 0.878207 487.544 0 486.46 0Z" fill="white"/>
</mask>
<g mask="url(#mask0_15419_7884)">
<path d="M486.46 0H1.96153C0.878207 0 0 0.878207 0 1.96153V168.691C0 169.775 0.878207 170.653 1.96153 170.653H486.46C487.544 170.653 488.422 169.775 488.422 168.691V1.96153C488.422 0.878207 487.544 0 486.46 0Z" fill="#0054FA" stroke="#0054FA" stroke-width="27.4615"/>
</g>
<path d="M415.709 37.875L423.618 84.4497H423.869V37.875H436.799V130.774H423.492L412.947 76.4152H412.696V130.774H399.766V37.875H415.709Z" fill="white"/>
<path d="M366.617 130.774V37.875H381.682V130.774H366.617Z" fill="white"/>
<path d="M322.274 37.875H339.599L350.772 130.774H336.084L334.452 110.562H326.668L325.036 130.774H311.102L322.274 37.875ZM329.179 79.1771L327.673 98.2589H333.447L331.815 79.1771L330.686 63.1082H330.309L329.179 79.1771Z" fill="white"/>
<path d="M280.384 130.774V90.2244H272.35V130.774H257.285V37.875H272.35V77.5451H280.384V37.875H295.323V130.774H280.384Z" fill="white"/>
<path d="M239.927 93.1083V113.069C239.927 125.121 233.902 131.774 222.478 131.774C211.054 131.774 204.023 125.121 204.023 113.069V55.5724C204.023 43.5207 211.054 36.8672 222.478 36.8672C233.902 36.8672 239.927 43.5207 239.927 55.5724V74.7797H225.867V54.4425C225.867 50.5509 224.863 48.2912 222.478 48.2912C219.967 48.2912 218.962 50.5509 218.962 54.4425V114.325C218.962 118.091 219.967 120.35 222.478 120.35C224.863 120.35 225.867 118.091 225.867 114.325V93.1083H239.927Z" fill="white"/>
<path d="M159.355 130.774V37.875H188.48V50.1778H174.294V77.6706H186.974V89.9734H174.294V118.471H188.48V130.774H159.355Z" fill="white"/>
<path d="M120.298 130.774H105.359V37.875H124.943C135.614 37.875 142.142 44.1519 142.142 55.4504V78.2983C142.142 89.4712 135.614 95.7481 124.943 95.7481H120.298V130.774ZM120.424 84.5752H123.688C126.199 84.5752 127.203 82.3155 127.203 78.2983V55.4504C127.203 51.3076 126.199 49.0479 123.688 49.0479H120.424V84.5752Z" fill="white"/>
<path d="M61.0245 37.875H78.3488L89.5217 130.774H74.8337L73.2017 110.562H65.4183L63.7863 130.774H49.8516L61.0245 37.875ZM67.9291 79.1771L66.4226 98.2589H72.1974L70.5654 79.1771L69.4356 63.1082H69.0589L67.9291 79.1771Z" fill="white"/>
</svg>

<svg xmlns="http://www.w3.org/2000/svg" width="489" height="171" fill="none" viewBox="0 0 489 171"><mask id="a" width="489" height="171" x="0" y="0" maskUnits="userSpaceOnUse" style="mask-type:luminance"><path fill="#fff" d="M486.46 0H1.962A1.96 1.96 0 0 0 0 1.962V168.69c0 1.084.878 1.962 1.962 1.962H486.46a1.96 1.96 0 0 0 1.962-1.962V1.961A1.96 1.96 0 0 0 486.46 0"/></mask><g mask="url(#a)"><path fill="#0054fa" stroke="#0054fa" stroke-width="27.462" d="M486.46 0H1.962A1.96 1.96 0 0 0 0 1.962V168.69c0 1.084.878 1.962 1.962 1.962H486.46a1.96 1.96 0 0 0 1.962-1.962V1.961A1.96 1.96 0 0 0 486.46 0Z"/></g><path fill="#fff" d="m415.709 37.875 7.909 46.575h.251V37.875h12.93v92.899h-13.307l-10.545-54.359h-.251v54.359h-12.93V37.875zM366.617 130.774V37.875h15.065v92.899zM322.274 37.875h17.325l11.173 92.899h-14.688l-1.632-20.212h-7.784l-1.632 20.212h-13.934zm6.905 41.302-1.506 19.082h5.774l-1.632-19.082-1.129-16.069h-.377zM280.384 130.774v-40.55h-8.034v40.55h-15.065V37.875h15.065v39.67h8.034v-39.67h14.939v92.899zM239.927 93.108v19.961c0 12.052-6.025 18.705-17.449 18.705s-18.455-6.653-18.455-18.705V55.572c0-12.051 7.031-18.705 18.455-18.705s17.449 6.654 17.449 18.705V74.78h-14.06V54.443c0-3.892-1.004-6.152-3.389-6.152-2.511 0-3.516 2.26-3.516 6.152v59.882c0 3.766 1.005 6.025 3.516 6.025 2.385 0 3.389-2.259 3.389-6.025V93.108zM159.355 130.774V37.875h29.125v12.303h-14.186V77.67h12.68v12.302h-12.68v28.498h14.186v12.303zM120.298 130.774h-14.939V37.875h19.584c10.671 0 17.199 6.277 17.199 17.575v22.848c0 11.173-6.528 17.45-17.199 17.45h-4.645zm.126-46.199h3.264c2.511 0 3.515-2.26 3.515-6.277V55.45c0-4.142-1.004-6.402-3.515-6.402h-3.264zM61.025 37.875h17.324l11.173 92.899H74.834l-1.632-20.212h-7.784l-1.632 20.212H49.852zm6.904 41.302L66.423 98.26h5.774l-1.632-19.082-1.13-16.069h-.376z"/></svg>
